X: 1076
T: A Theater new Tune
%R: waltz
B: Henry Playford "Apollo's Banquet", London 1687 (5th Edition)
F: https://archive.org/details/apollosbanquetco01rugg
Z: 2017 John Chambers <jc:trillian.mit.edu>
M: 3/4
L: 1/8
K: Em
% - - - - - - - - - -
|:\
b2g3f | e3fg2 | ^d2e3f | f4e2 |\
B2d3e | c3Bc2 | F2G3A | A4G2 ::\
f2f2bf | g3fe2 | a3b^g2 | a4f2 |
g>fe2f2 | ^d4(cB) | e2e>fe>d | ^c4(BA) |\
d2d>AB>c | B3fga |b3gab | (c'b)(ag)(af) |\
g2^c2f2 | g>ee3^d | e6 |]
% - - - - - - - - - -

%%sep 1 1 500
%%sep 1 1 500

